images/contact.svg

<svg xmlns="http://www.w3.org/2000/svg" width="512" height="512" viewBox="0 0 512 512"><path d="M170.544 239.052l-120.544-92.598v213.142l120.544-120.544zm290.384-135.645h-409.512l204.593 157.162 204.919-157.162zm-147.573 157.289l-57.364 43.994-57.454-44.135-148.037 148.038h410.751l-147.896-147.897zm28.012-21.484l120.633 120.633v-213.152l-120.633 92.519z"/></svg>

<?xml version="1.0" encoding="utf-8"?>


<!-- The icon can be used freely in both personal and commercial projects with no attribution required, but always appreciated. 
You may NOT sub-license, resell, rent, redistribute or otherwise transfer the icon without express written permission from iconmonstr.com -->


<!DOCTYPE svg PUBLIC "-//W3C//DTD SVG 1.1//EN" "http://www.w3.org/Graphics/SVG/1.1/DTD/svg11.dtd">

<svg version="1.1" xmlns="http://www.w3.org/2000/svg" xmlns:xlink="http://www.w3.org/1999/xlink" x="0px" y="0px"

	 width="512px" height="512px" viewBox="0 0 512 512" enable-background="new 0 0 512 512" xml:space="preserve">

<path id="email-icon" d="M170.544,239.052L50,146.454v213.142L170.544,239.052z M460.928,103.407H51.416l204.593,157.162

	L460.928,103.407z M313.355,260.696l-57.364,43.994l-57.454-44.135L50.5,408.593h410.751L313.355,260.696z M341.367,239.212

	L462,359.845V146.693L341.367,239.212z"/>

</svg>
